X: 1
T: Little Johnnie's Hame
M: 4/4
L: 1/8
R: strathspey
K: Dmaj
D2A,>D F>DA<D|d2c>d B>dA<D|E2B,>E G>Eg>f|(3efd (3cdB (3ABG (3FGE|
D2A,>D F>DA<D|d2c>d B>dA>F|G>B (3efg (3fed a>A|1 (3Adf a>A d3D:|2 (3Adf a>A d3g|
|:f2d>f (3Adf a>g|f>dA<d F>AD>f|g2e>g (3Beg b>a|(3gab (3efg (3cde A>g|
f2d>f (3Adf a>g|f>dA<d F>AD>F|1 G>B (3efg (3fed a>A|(3Adf a>A d3g:|
2 G>B (3efg (3fed (3afd|(3AFD A,>C D4||
